svgs/sharp-duotone-solid/volcano.svg

<svg xmlns="http://www.w3.org/2000/svg" viewBox="0 0 512 512"><!--! Font Awesome Pro 7.1.0 by @fontawesome - https://fontawesome.com License - https://fontawesome.com/license (Commercial License) Copyright 2025 Fonticons, Inc. --><path opacity=".4" fill="currentColor" d="M0 440l0 72 512 0 0-72-93.5-105.2-98.5 49.2-80-64-112 32-31.3-20.8-96.7 108.8z"/><path fill="currentColor" d="M160 144l48 0 32 48 32 0 32-48 48 0c35.3 0 64-28.7 64-64s-28.7-64-64-64c-15.7 0-30 5.6-41.2 15-11.2-18.6-31.6-31-54.8-31s-43.6 12.4-54.8 31c-11.1-9.4-25.5-15-41.2-15-35.3 0-64 28.7-64 64s28.7 64 64 64zm80 176l80 64 98.5-49.2-98.5-110.8-128 0-95.3 107.2 31.3 20.8 112-32z"/></svg>

<svg xmlns="http://www.w3.org/2000/svg" viewBox="0 0 512 512"><!--! Font Awesome Pro 6.7.2 by @fontawesome - https://fontawesome.com License - https://fontawesome.com/license (Commercial License) Copyright 2024 Fonticons, Inc. --><defs><style>.fa-secondary{opacity:.4}</style></defs><path class="fa-secondary" d="M0 440l0 72 512 0 0-72L418.5 334.8 320 384l-80-64L128 352 96.7 331.2 0 440z"/><path class="fa-primary" d="M160 144l48 0 32 48 32 0 32-48 48 0c35.3 0 64-28.7 64-64s-28.7-64-64-64c-15.7 0-30 5.6-41.2 15C299.6 12.4 279.3 0 256 0s-43.6 12.4-54.8 31C190 21.6 175.7 16 160 16c-35.3 0-64 28.7-64 64s28.7 64 64 64zm80 176l80 64 98.5-49.2L320 224l-128 0L96.7 331.2 128 352l112-32z"/></svg>
